X:158
T:This gloom on my soul
T:Tha m'aigne fo ghruaim
R:Slow Air
S:Simon Fraser Collection
N:No.98
O:Scottish
M:3/4
L:1/8
Q:1/4=160
K:A
a>g|f2e2c2|B3z c>B|A2F2E2|F3z c>e|f2c2e2|B4A2|(A6|A2)z2:|
c>e|f2e2f2|e3z a>g|f2e2c2|e3z f>a|b2f2a2|e4c2|(B6|B2)z2 a>g|
f2 e2 c2|B3z c>B|A2F2E2|F3z c>e|f2c2e2|B4A2|(A6|A2)z2||

